X:1
T:12 Lieder, 1786   (alternative title: Zwölf Lieder auf ihrer Reise in Musik gesetzt)
T:Die Tanne
T:5. Die Tanne
T:Maria Theresia von Paradis
T:12 Lieder, 1786 (Zwölf Lieder auf ihrer Reise in Musik gesetzt) 
T:Gottlieb Konrad Pfeffel
T:NOTE TO TRANSCRIBER: Please transcribe the notes as shown in the IMSLP edition, into the piano's Soprano clef stave shown on this template score. During review, any corrections will be made in the Soprano clef staves.  The reviewer will then copy the notes into the hidden Treble clef staves, reveal the Treble clef staves and delete the Soprano clef staves before the score is published to the  OpenScore Lieder Corpus. 
T:Creative Commons copyright waiver (CC0 1.0 Universal)
T:Creative Commons copyright waiver (CC0 1.0 Universal)
C:Maria Theresia von Paradis
Z:Gottlieb Konrad Pfeffel
Z:Creative Commons copyright waiver (CC0 1.0 Universal)
%%score 1 { 2 3 }
L:1/8
M:2/4
K:C
V:1 alto1 nm="Voice\n(Soprano clef)"
V:2 alto1 nm="\n\n\n\n\n\n\nPianoforte"
V:3 bass nm="Pianoforte"
V:1
"^A3" A,"^B3"B,"^C4" C"^D4"D |"^E4" E"^F4"F"^G4" G"^A4"A |"^B4" B"^C5"c"^D5" d"^E5"e | %3
w: |||
"^F5" f"^G5"g"^A5" a z |[K:G][M:3/8][Q:1/4=92]"^Andante" B B c | d2{ed} c/B/ | A2 B |{B} c3 | %8
w: |Sieh Do- ris|wie vom *|Mond be-|strahlt|
 A A B/d/ | dc B/c/ |{B} A3 | G G d/B/ |{B} A2 e/c/ |{d} c2 B | !fermata!Bd/c/c | c B A | %16
w: die Tan- ne *|glänzt * so *|schön,|vor je- dem *|Baum hab' *|ich im|Wald _ _ _|die Tan- ne|
 G>B A/F/ | G3 | e d c | B>d c/A/ | G3 |] %21
w: mir * er- *|sehn,|die Tan- ne|mir * er- *|sehn.|
V:2
 z4 | z4 | z4 | z4 |[K:G][M:3/8]"^\n(Soprano clef)\n" [GB]/D/[GB]/D/[Ac]/D/ | z3 | z3 | z3 | z3 | %9
 z3 | z3 | G/D/G/D/d/D/ | z3 | z3 | z3 | z3 | z3 | z3 | z3 | [GB]/D/[GB]/D/[FA]/C/ | z3 |] %21
V:3
 z4 | z4 | z4 | z4 |[K:G][M:3/8]"^(Bass clef)" [G,,G,]3 | z3 | z3 | z3 | z3 | z3 | z3 | B,,3 | z3 | %13
 z3 | z3 | z3 | z3 | z3 | z3 | D,2 D,, | z3 |] %21

